dist/assets/images/article/commas.svg

<svg width="50" height="50" viewBox="0 0 50 50" fill="none" xmlns="http://www.w3.org/2000/svg">
<path d="M11.603 23.1571V27.1819H21.6582V48.8396H0V27.1819H0.000523481V23.1571C0.000523481 14.9842 2.352 8.91552 6.99004 5.11846C10.1985 2.49189 14.2596 1.16016 19.061 1.16016V12.7621C16.4546 12.7621 11.603 12.7621 11.603 23.1571ZM47.403 12.7621V1.16016C42.6019 1.16016 38.5407 2.49189 35.3323 5.11846C30.6943 8.91552 28.3426 14.9845 28.3426 23.1571V27.1819V48.8396H50V27.1819H39.9447V23.1571C39.945 12.7621 44.7966 12.7621 47.403 12.7621Z" fill="#E30613"/>
<rect x="0.5" y="0.5" width="49" height="49" stroke="#E30613"/>
</svg>

<svg width="50" height="50" fill="none" xmlns="http://www.w3.org/2000/svg"><path d="M11.603 23.157v4.025h10.055V48.84H0V23.157C0 14.984 2.353 8.916 6.99 5.118c3.208-2.626 7.27-3.958 12.071-3.958v11.602c-2.606 0-7.458 0-7.458 10.395zm35.8-10.395V1.16c-4.801 0-8.862 1.332-12.07 3.958-4.639 3.798-6.99 9.867-6.99 18.04V48.84H50V27.182H39.945v-4.025c0-10.395 4.852-10.395 7.458-10.395z" fill="#E30613"/><path stroke="#E30613" d="M.5.5h49v49H.5z"/></svg>
